X:1
T: Ye'll Aye Be Welcome Back Again
C: Bremner 1759, from RSCDS #7
C: Arr. T. Traub 11-22-1998
M: 4/4
L: 1/8
%
K: D
|: F|"D"D>FA>B A<FA>B|"D"D>Fd>B "A"A<FE>F|"D"D>FA>B A>Bd>e |"D"f>d"A"e>f "D"d2 d :|
g|"D"f<dd>f "G"g>fe>d|"A"c<Ae<A f<Ae>g|"D"f<dd>f "G"g>fe>d|"A"c>de>f "D"d2 d>g|
"D"f<d de/f/ "G"g>fe>d|"A"c<Ae<A f<Ae>g|"D"f<d"Em"g<e "D"a<f"G"b>g|"D"f>d"A"e>f "D"d2 d|]
